X: 352
T: Gai yangyan
%%abc-version 2.0
%%abcx-abcm2ps-target-version 5.9.1 (29 Sep 2008)
%%abc-creator hum2abc beta
%%abcx-conversion-date 2013/10/02 07:52:30
%%abc-edited-by Helmut Schaffrath
%%humdrum-veritas 290215371
%%humdrum-veritas-data 2302892564
%%continueall 1
%%barnumbers 0
L: 1/8
M: 2/4
K: G
e2d e [I:setbarnb 1]| 
A A G A | 
e e d e | 
A4 | 
e e e g | 
dd2B | 
A> A A G | 
E2A2 | 
E E E G | 
A d F E | 
D4- | 
D4 |]  



